X:35
T:Lilly. Ru2.035, The
%%VWML:RutherfordVol2-2249-p18-0
F:http://www.vwml.org/record/RutherfordVol2/2249/p18
B:RUTHERFORD Complete Collection of 200 Country Dances Vol.2; 1759.
Z:vmp.Mike Hicken 2015 www.village-music-project.org.uk
M:C|
Q:1/4=140
N:Likely named after a ship rather than the flower
K:D
A|dcdA TB2 AG|TF2 ED E/E/E EA|dcdA TB2 AF|EDEF D/D/DD :|
|: A|TFDAD F2 FA|FDAD E/E/E EA|TFDAD F2 FA|EDEF D/D/DD :|
|:A|dcdA TB2 de|f2ed e/e/e ea|gfed TB2 AF|EDEF D/D/DD :|
W:
W: Foot it 4 and Hands across quite round .|
W: foot it and left hands across back again :|
W: cross over two Cu: .|.  the 2d Cu: do the same :|
W: Hands round 6 .||  lead to the top foot it and
W: cast off one Cu: :||:|
T:Alcove. Ru2.036, The
L:1/8
B:RUTHERFORD Complete Collection of 200 Country Dances Vol.2; 1759.
Z:vmp.Mike Hicken 2015 www.village-music-project.org.uk
M:2/4
Q:1/4=140
K:G
d|B2Gd|B2G2|DGGG|G3A|BGGA|BGGA|B/c/dcB|{B}A3 :|
|:G|F2 Dc|c2 BA|BAGF|G3G|F2Dc|c2 BA|Bdgf|{f}e3d|
e2ce| d2Bd|cBAG|F/G/ADB|c2 ec|d2ge|dcBA|G3 :|
W:
W: Cast off two Cu: .|  lead up to the top and cast off
W: :|  foot it and Right hands across with the 3d Cu:
W: foot it and left Hands back again :|.  lead up to the
W: top cast off one Cu: and right and left at top :|
|:
